src/NuGetGallery/Content/gallery/img/rss.svg

<?xml version="1.0" encoding="UTF-8"?>
<svg width="400px" height="400px" viewBox="0 0 400 400" version="1.1" xmlns="http://www.w3.org/2000/svg" xmlns:xlink="http://www.w3.org/1999/xlink">
    <!-- Generator: Sketch 45.2 (43514) - http://www.bohemiancoding.com/sketch -->
    <title>Social/RSS</title>
    <desc>Created with Sketch.</desc>
    <defs></defs>
    <g id="Symbols" stroke="none" stroke-width="1" fill="none" fill-rule="evenodd">
        <g id="Social/RSS">
            <rect id="Rectangle" fill="#F79A45" x="0" y="0" width="400" height="400"></rect>
            <circle id="Oval" fill="#FFFFFF" cx="100" cy="300" r="50"></circle>
            <path d="M50,150 L50,200 C92.0936055,200.666929 127.450275,215.31026 156.070007,243.929993 C184.68974,272.549725 199.333071,307.906394 200,350 L250,350 C250.185839,294.959174 230.659171,247.819175 191.419998,208.580002 C152.180825,169.340829 105.040826,149.814161 50,150 Z" id="Path-2" fill="#FFFFFF"></path>
            <path d="M50,50 L50,100 C121.45687,102.416871 180.383536,126.823538 226.779999,173.220001 C273.176462,219.616464 297.583129,278.54313 300,350 L350,350 C349.406966,266.56696 320.116968,195.856958 262.130005,137.869995 C204.143042,79.8830319 133.43304,50.5930335 50,50 Z" id="Path-3" fill="#FFFFFF"></path>
        </g>
    </g>
</svg>

<svg xmlns="http://www.w3.org/2000/svg" width="400" height="400"><g fill="none"><g><path fill="#F79A45" d="M0 0h400v400H0z"/><circle cx="100" cy="300" r="50" fill="#fff"/><path fill="#fff" d="M50 150v50c42.1.67 77.45 15.3 106.07 43.93C184.7 272.55 199.33 307.9 200 350h50c.2-55.04-19.34-102.18-58.58-141.42C152.18 169.34 105.04 149.8 50 150z"/><path fill="#fff" d="M50 50v50c71.46 2.42 130.38 26.82 176.78 73.22 46.4 46.4 70.8 105.32 73.22 176.78h50c-.6-83.43-29.88-154.14-87.87-212.13-58-58-128.7-87.28-212.13-87.87z"/></g></g></svg>
